X:9
T:SimonBrodie
S:RobertRiddell, 1794, Collection of Scotch, Galwegian and Border Tunes
S:"Pete Stewart" <pete:wintonpottery.co.uk> tradtunes 2010-2-6
M:4/4
L:1/8
K:Eaeolian
EGBEFD F/G/A/F/ | GEBE eEBE | EGBE FD F/G/A/F/ | GEBE eEGB | dd e/d/c/B/ ADFA | EEGE BEGB :|
(EGB)(GF)ADA | GEBE ^dEeB | (d/e/f) Bd FDAF | GEBE eBef | gage fd f/g/a/f/ | gebe ge b/a/g/f/ |
ebgbfd f/g/a/f/ | gebe a/g/f/e/ df | (A/B/^c) dB AD B/A/G/F/ | EGBE eEGB :|
|:EGBE F/D/D/D/ F/A/A/A/ | G/E/E/E/ B/E/E/E/ e/E/E/E/ B/E/E/E/ |\
e/E/E/E/B/E/E/E/ F/D/D/D/ F/A/A/A/ | G/E/E/E/ G/B/B/B/ e/B/B/B/ c/A/A/A/ |\
B/G/G/G/^c/A/A/A/ d/D/D/D/ F/A/A/A/ | GEBE eEGB :|
|:B,EGB FD F/G/A/F/ | GE G/B/e/B/ G/B/e/G/ G/B/e/B/ | D/d/f/d/ D/d/f/d/ B d2 g/f/ | eBge e'ebe |\
begbfd f/g/a/f/ | gB e/g/b/g/ e/g/b/g/ e/g/b/g/ | e/g/b/g/ e/g/b/g/ fd f/g/a/f/ | e/g/f/e/ f/a/g/f/ e/g/f/e/ d/f/e/d/ |\
^c/e/d/c/B/d/c/B/ dD F/G/A/F/ | GEBE eEGB :|
